X:65
T:Eddie Clapp 6/8
C:V.C.A.
M:6/8
L:1/8
K:G
D|Gge dBG|AGA BGE|DGG AGA|BAA A2D|Gge dBG|AGA BGE|DGG AGA|BGG G2::
d|dBd ege|dBd ege|dBd dBG|BAA A2d|dBd ege|dBd ege|def gdB|AGG G2:|
